poi/svg/1016.svg

<?xml version="1.0" encoding="UTF-8" standalone="no"?>
<svg
   xmlns:dc="http://purl.org/dc/elements/1.1/"
   xmlns:cc="http://creativecommons.org/ns#"
   xmlns:rdf="http://www.w3.org/1999/02/22-rdf-syntax-ns#"
   xmlns:svg="http://www.w3.org/2000/svg"
   xmlns="http://www.w3.org/2000/svg"
   xmlns:sodipodi="http://sodipodi.sourceforge.net/DTD/sodipodi-0.dtd"
   xmlns:inkscape="http://www.inkscape.org/namespaces/inkscape"
   inkscape:version="1.0 (4035a4fb49, 2020-05-01)"
   sodipodi:docname="1016.svg"
   id="svg20"
   version="1.2"
   viewBox="0 0 42.519639 42.519639"
   height="14.999999mm"
   width="14.999999mm">
  <metadata
     id="metadata24">
    <rdf:RDF>
      <cc:Work
         rdf:about="">
        <dc:format>image/svg+xml</dc:format>
        <dc:type
           rdf:resource="http://purl.org/dc/dcmitype/StillImage" />
        <dc:title>Qt SVG Document</dc:title>
      </cc:Work>
    </rdf:RDF>
  </metadata>
  <sodipodi:namedview
     inkscape:current-layer="svg20"
     inkscape:window-maximized="1"
     inkscape:window-y="-9"
     inkscape:window-x="-9"
     inkscape:cy="55.418585"
     inkscape:cx="22.874443"
     inkscape:zoom="6.3809115"
     fit-margin-bottom="0"
     fit-margin-right="0"
     fit-margin-left="0"
     fit-margin-top="0"
     showgrid="false"
     id="namedview22"
     inkscape:window-height="1013"
     inkscape:window-width="1920"
     inkscape:pageshadow="2"
     inkscape:pageopacity="0"
     guidetolerance="10"
     gridtolerance="10"
     objecttolerance="10"
     borderopacity="1"
     bordercolor="#666666"
     pagecolor="#ffffff" />
  <title
     id="title2">Qt SVG Document</title>
  <desc
     id="desc4">Generated with Qt</desc>
  <defs
     id="defs6" />
  <g
     transform="translate(5.25984,5.25984)"
     id="g18"
     stroke-linejoin="bevel"
     stroke-linecap="square"
     fill-rule="evenodd"
     stroke-width="1"
     stroke="#000000"
     fill="none">
    <g
       id="g10"
       font-style="normal"
       font-weight="400"
       font-size="7.8px"
       font-family="'MS Shell Dlg 2'"
       stroke="none"
       fill-opacity="1"
       fill="#1f78b4">
      <path
         id="path8"
         d="M 37.2598,16 C 37.2598,27.7415 27.7415,37.2598 16,37.2598 4.25851,37.2598 -5.25984,27.7415 -5.25984,16 -5.25984,4.25851 4.25851,-5.25984 16,-5.25984 27.7415,-5.25984 37.2598,4.25851 37.2598,16"
         fill-rule="evenodd"
         vector-effect="non-scaling-stroke" />
    </g>
    <g
       id="g14"
       font-style="normal"
       font-weight="400"
       font-size="7.8px"
       font-family="'MS Shell Dlg 2'"
       transform="translate(15.4331,13.1654)"
       stroke="none"
       fill-opacity="0.94902"
       fill="#ffffff">
      <path
         id="path12"
         d="M -7.9873,7.72119 C -8.5332,7.48324 -8.89014,7.36426 -9.05811,7.36426 L 0.348145,2.17822 -2.15039,-2.33594 c -0.16797,-0.37793 -0.25195,-0.67887 -0.25195,-0.90283 0,-0.46191 0.11198,-0.82585 0.33593,-1.0918 0.23796,-0.30794 0.5389,-0.5039 0.90284,-0.58789 l 9.55322,-1.76367 c 0.22396,-0.02799 0.45491,-0.014 0.69287,0.04199 0.16797,0.05599 0.34644,0.13298 0.5354,0.23096 0.18896,0.09798 0.33944,0.26595 0.45138,0.50391 0.168,0.39192 0.168,0.82584 0,1.30175 -0.16793,0.47592 -0.52487,0.75586 -1.07076,0.83985 L 2.1958,-2.25195 8.05371,7.72119 C 7.5638,7.88916 7.14388,7.97314 6.79395,7.97314 6.56999,7.97314 6.31453,7.93815 6.02759,7.86816 5.74064,7.79818 5.4362,7.72119 5.11426,7.63721 4.75033,7.45524 4.43888,7.33626 4.17993,7.28027 3.92098,7.22428 3.67952,7.19629 3.45557,7.19629 3.21761,7.19629 2.96216,7.22428 2.68921,7.28027 2.41626,7.33626 2.08382,7.45524 1.69189,7.63721 1.31396,7.72119 0.995524,7.79818 0.736572,7.86816 0.47762,7.93815 0.250163,7.97314 0.0541992,7.97314 -0.183757,7.97314 -0.428711,7.93815 -0.680664,7.86816 -0.932617,7.79818 -1.24756,7.72119 -1.62549,7.63721 -1.97542,7.45524 -2.29386,7.33626 -2.58081,7.28027 -2.86776,7.22428 -3.10921,7.19629 -3.30518,7.19629 c -0.22395,0 -0.47941,0.02799 -0.76635,0.08398 -0.28695,0.05599 -0.61939,0.17497 -0.99732,0.35694 -0.33594,0.08398 -0.64038,0.16097 -0.91333,0.23095 -0.27295,0.06999 -0.5004,0.10498 -0.68237,0.10498 -0.44792,0 -0.88884,-0.08398 -1.32275,-0.25195 M 11.833,9.77881 c 0.3779,0.08398 0.6929,0.16447 0.9448,0.24149 0.252,0.0769 0.4969,0.1154 0.7349,0.1154 v 2.4776 c -0.238,-0.056 -0.4829,-0.112 -0.7349,-0.168 -0.2519,-0.056 -0.5669,-0.154 -0.9448,-0.2939 -0.3499,-0.084 -0.6754,-0.1645 -0.9763,-0.2415 -0.301,-0.077 -0.5354,-0.1155 -0.7034,-0.1155 -0.22394,0 -0.47239,0.0385 -0.74534,0.1155 -0.27295,0.077 -0.58439,0.1575 -0.93433,0.2415 -0.33593,0.1399 -0.65438,0.2379 -0.95532,0.2939 -0.30094,0.056 -0.5424,0.112 -0.72436,0.168 C 6.56999,12.5573 6.32153,12.5013 6.04858,12.4453 5.77563,12.3893 5.4362,12.2913 5.03027,12.1514 4.66634,12.0674 4.3549,11.9869 4.09595,11.9099 3.837,11.8329 3.62354,11.7944 3.45557,11.7944 c -0.23796,0 -0.49341,0.0385 -0.76636,0.1155 -0.27295,0.077 -0.60539,0.1575 -0.99732,0.2415 -0.37793,0.1399 -0.696366,0.2379 -0.955318,0.2939 -0.258952,0.056 -0.486409,0.112 -0.6823728,0.168 -0.2379562,-0.056 -0.4829102,-0.112 -0.7348632,-0.168 -0.251953,-0.056 -0.566896,-0.154 -0.944826,-0.2939 -0.34993,-0.084 -0.66837,-0.1645 -0.95532,-0.2415 -0.28695,-0.077 -0.5284,-0.1155 -0.72437,-0.1155 -0.22395,0 -0.47941,0.0385 -0.76635,0.1155 -0.28695,0.077 -0.61939,0.1575 -0.99732,0.2415 -0.33594,0.1399 -0.64038,0.2379 -0.91333,0.2939 -0.27295,0.056 -0.5004,0.112 -0.68237,0.168 -0.22396,-0.056 -0.47241,-0.112 -0.74536,-0.168 -0.27295,-0.056 -0.61239,-0.154 -1.01831,-0.2939 -0.36393,-0.084 -0.67538,-0.1645 -0.93433,-0.2415 -0.25895,-0.077 -0.5074,-0.1155 -0.74535,-0.1155 -0.168,0 -0.3884,0.0385 -0.6614,0.1155 -0.2729,0.077 -0.5774,0.1575 -0.9133,0.2415 -0.4059,0.1399 -0.7454,0.2379 -1.0183,0.2939 -0.273,0.056 -0.5214,0.112 -0.7454,0.168 v -2.4776 c 0.224,0 0.4724,-0.0385 0.7454,-0.1154 0.2729,-0.07702 0.6124,-0.15751 1.0183,-0.24149 0.3359,-0.19596 0.6404,-0.32194 0.9133,-0.37793 0.273,-0.05599 0.4934,-0.08399 0.6614,-0.08399 0.23795,0 0.4864,0.028 0.74535,0.08399 0.25895,0.05599 0.5704,0.18197 0.93433,0.37793 0.40592,0.08398 0.74536,0.16447 1.01831,0.24149 0.27295,0.0769 0.5214,0.1154 0.74536,0.1154 0.18197,0 0.40942,-0.0385 0.68237,-0.1154 0.27295,-0.07702 0.57739,-0.15751 0.91333,-0.24149 0.37793,-0.19596 0.71037,-0.32194 0.99732,-0.37793 0.28694,-0.05599 0.5424,-0.08399 0.76635,-0.08399 0.19597,0 0.42343,0.028 0.68238,0.08399 0.25895,0.05599 0.56339,0.18197 0.91333,0.37793 0.36393,0.08398 0.68937,0.16447 0.976316,0.24149 0.286946,0.0769 0.549397,0.1154 0.7873532,0.1154 0.1959638,0 0.4234208,-0.0385 0.6823728,-0.1154 C 0.995524,9.94328 1.31396,9.86279 1.69189,9.77881 2.08382,9.58285 2.41626,9.45687 2.68921,9.40088 2.96216,9.34489 3.21761,9.31689 3.45557,9.31689 c 0.16797,0 0.38143,0.028 0.64038,0.08399 0.25895,0.05599 0.57039,0.18197 0.93432,0.37793 0.40593,0.08398 0.74536,0.16447 1.01831,0.24149 0.27295,0.0769 0.52141,0.1154 0.74537,0.1154 0.18196,0 0.42342,-0.0385 0.72436,-0.1154 C 7.81925,9.94328 8.1377,9.86279 8.47363,9.77881 8.82357,9.58285 9.13501,9.45687 9.40796,9.40088 9.68091,9.34489 9.92936,9.31689 10.1533,9.31689 c 0.168,0 0.4024,0.028 0.7034,0.08399 0.3009,0.05599 0.6264,0.18197 0.9763,0.37793 M 6.45801,1.98926 c 0,-0.90983 0.30794,-1.672691 0.92383,-2.288576 0.61588,-0.615886 1.33675,-0.923824 2.16259,-0.923824 0.83987,0 1.56767,0.307938 2.18357,0.923824 0.6159,0.615885 0.9239,1.378746 0.9239,2.288576 0,0.83984 -0.308,1.56771 -0.9239,2.18359 C 11.1121,4.78874 10.3843,5.09668 9.54443,5.09668 8.71859,5.09668 7.99772,4.78874 7.38184,4.17285 6.76595,3.55697 6.45801,2.8291 6.45801,1.98926"
         fill-rule="evenodd"
         vector-effect="none" />
    </g>
    <g
       id="g16"
       font-style="normal"
       font-weight="400"
       font-size="7.8px"
       font-family="'MS Shell Dlg 2'"
       stroke="none"
       fill-opacity="1"
       fill="#1f78b4" />
  </g>
</svg>

<?xml version="1.0" encoding="UTF-8" standalone="no"?>
<svg width="11.2889mm" height="11.2889mm"
 viewBox="0 0 32 32"
 xmlns="http://www.w3.org/2000/svg" xmlns:xlink="http://www.w3.org/1999/xlink"  version="1.2" baseProfile="tiny">
<title>Qt SVG Document</title>
<desc>Generated with Qt</desc>
<defs>
</defs>
<g fill="none" stroke="black" stroke-width="1" fill-rule="evenodd" stroke-linecap="square" stroke-linejoin="bevel" >

<g fill="#1f78b4" fill-opacity="1" stroke="none" transform="matrix(1,0,0,1,0,0)"
font-family="MS Shell Dlg 2" font-size="7.8" font-weight="400" font-style="normal" 
>
<path vector-effect="non-scaling-stroke" fill-rule="evenodd" d="M37.2598,16 C37.2598,27.7415 27.7415,37.2598 16,37.2598 C4.25851,37.2598 -5.25984,27.7415 -5.25984,16 C-5.25984,4.25851 4.25851,-5.25984 16,-5.25984 C27.7415,-5.25984 37.2598,4.25851 37.2598,16 "/>
</g>

<g fill="#ffffff" fill-opacity="0.94902" stroke="none" transform="matrix(1,0,0,1,15.4331,13.1654)"
font-family="MS Shell Dlg 2" font-size="7.8" font-weight="400" font-style="normal" 
>
<path vector-effect="none" fill-rule="evenodd" d="M-7.9873,7.72119 C-8.5332,7.48324 -8.89014,7.36426 -9.05811,7.36426 L0.348145,2.17822 L-2.15039,-2.33594 C-2.31836,-2.71387 -2.40234,-3.01481 -2.40234,-3.23877 C-2.40234,-3.70068 -2.29036,-4.06462 -2.06641,-4.33057 C-1.82845,-4.63851 -1.52751,-4.83447 -1.16357,-4.91846 L8.38965,-6.68213 C8.61361,-6.71012 8.84456,-6.69613 9.08252,-6.64014 C9.25049,-6.58415 9.42896,-6.50716 9.61792,-6.40918 C9.80688,-6.3112 9.95736,-6.14323 10.0693,-5.90527 C10.2373,-5.51335 10.2373,-5.07943 10.0693,-4.60352 C9.90137,-4.1276 9.54443,-3.84766 8.99854,-3.76367 L2.1958,-2.25195 L8.05371,7.72119 C7.5638,7.88916 7.14388,7.97314 6.79395,7.97314 C6.56999,7.97314 6.31453,7.93815 6.02759,7.86816 C5.74064,7.79818 5.4362,7.72119 5.11426,7.63721 C4.75033,7.45524 4.43888,7.33626 4.17993,7.28027 C3.92098,7.22428 3.67952,7.19629 3.45557,7.19629 C3.21761,7.19629 2.96216,7.22428 2.68921,7.28027 C2.41626,7.33626 2.08382,7.45524 1.69189,7.63721 C1.31396,7.72119 0.995524,7.79818 0.736572,7.86816 C0.47762,7.93815 0.250163,7.97314 0.0541992,7.97314 C-0.183757,7.97314 -0.428711,7.93815 -0.680664,7.86816 C-0.932617,7.79818 -1.24756,7.72119 -1.62549,7.63721 C-1.97542,7.45524 -2.29386,7.33626 -2.58081,7.28027 C-2.86776,7.22428 -3.10921,7.19629 -3.30518,7.19629 C-3.52913,7.19629 -3.78459,7.22428 -4.07153,7.28027 C-4.35848,7.33626 -4.69092,7.45524 -5.06885,7.63721 C-5.40479,7.72119 -5.70923,7.79818 -5.98218,7.86816 C-6.25513,7.93815 -6.48258,7.97314 -6.66455,7.97314 C-7.11247,7.97314 -7.55339,7.88916 -7.9873,7.72119 M11.833,9.77881 C12.2109,9.86279 12.5259,9.94328 12.7778,10.0203 C13.0298,10.0972 13.2747,10.1357 13.5127,10.1357 L13.5127,12.6133 C13.2747,12.5573 13.0298,12.5013 12.7778,12.4453 C12.5259,12.3893 12.2109,12.2913 11.833,12.1514 C11.4831,12.0674 11.1576,11.9869 10.8567,11.9099 C10.5557,11.8329 10.3213,11.7944 10.1533,11.7944 C9.92936,11.7944 9.68091,11.8329 9.40796,11.9099 C9.13501,11.9869 8.82357,12.0674 8.47363,12.1514 C8.1377,12.2913 7.81925,12.3893 7.51831,12.4453 C7.21737,12.5013 6.97591,12.5573 6.79395,12.6133 C6.56999,12.5573 6.32153,12.5013 6.04858,12.4453 C5.77563,12.3893 5.4362,12.2913 5.03027,12.1514 C4.66634,12.0674 4.3549,11.9869 4.09595,11.9099 C3.837,11.8329 3.62354,11.7944 3.45557,11.7944 C3.21761,11.7944 2.96216,11.8329 2.68921,11.9099 C2.41626,11.9869 2.08382,12.0674 1.69189,12.1514 C1.31396,12.2913 0.995524,12.3893 0.736572,12.4453 C0.47762,12.5013 0.250163,12.5573 0.0541992,12.6133 C-0.183757,12.5573 -0.428711,12.5013 -0.680664,12.4453 C-0.932617,12.3893 -1.24756,12.2913 -1.62549,12.1514 C-1.97542,12.0674 -2.29386,11.9869 -2.58081,11.9099 C-2.86776,11.8329 -3.10921,11.7944 -3.30518,11.7944 C-3.52913,11.7944 -3.78459,11.8329 -4.07153,11.9099 C-4.35848,11.9869 -4.69092,12.0674 -5.06885,12.1514 C-5.40479,12.2913 -5.70923,12.3893 -5.98218,12.4453 C-6.25513,12.5013 -6.48258,12.5573 -6.66455,12.6133 C-6.88851,12.5573 -7.13696,12.5013 -7.40991,12.4453 C-7.68286,12.3893 -8.0223,12.2913 -8.42822,12.1514 C-8.79215,12.0674 -9.1036,11.9869 -9.36255,11.9099 C-9.6215,11.8329 -9.86995,11.7944 -10.1079,11.7944 C-10.2759,11.7944 -10.4963,11.8329 -10.7693,11.9099 C-11.0422,11.9869 -11.3467,12.0674 -11.6826,12.1514 C-12.0885,12.2913 -12.428,12.3893 -12.7009,12.4453 C-12.9739,12.5013 -13.2223,12.5573 -13.4463,12.6133 L-13.4463,10.1357 C-13.2223,10.1357 -12.9739,10.0972 -12.7009,10.0203 C-12.428,9.94328 -12.0885,9.86279 -11.6826,9.77881 C-11.3467,9.58285 -11.0422,9.45687 -10.7693,9.40088 C-10.4963,9.34489 -10.2759,9.31689 -10.1079,9.31689 C-9.86995,9.31689 -9.6215,9.34489 -9.36255,9.40088 C-9.1036,9.45687 -8.79215,9.58285 -8.42822,9.77881 C-8.0223,9.86279 -7.68286,9.94328 -7.40991,10.0203 C-7.13696,10.0972 -6.88851,10.1357 -6.66455,10.1357 C-6.48258,10.1357 -6.25513,10.0972 -5.98218,10.0203 C-5.70923,9.94328 -5.40479,9.86279 -5.06885,9.77881 C-4.69092,9.58285 -4.35848,9.45687 -4.07153,9.40088 C-3.78459,9.34489 -3.52913,9.31689 -3.30518,9.31689 C-3.10921,9.31689 -2.88175,9.34489 -2.6228,9.40088 C-2.36385,9.45687 -2.05941,9.58285 -1.70947,9.77881 C-1.34554,9.86279 -1.0201,9.94328 -0.733154,10.0203 C-0.446208,10.0972 -0.183757,10.1357 0.0541992,10.1357 C0.250163,10.1357 0.47762,10.0972 0.736572,10.0203 C0.995524,9.94328 1.31396,9.86279 1.69189,9.77881 C2.08382,9.58285 2.41626,9.45687 2.68921,9.40088 C2.96216,9.34489 3.21761,9.31689 3.45557,9.31689 C3.62354,9.31689 3.837,9.34489 4.09595,9.40088 C4.3549,9.45687 4.66634,9.58285 5.03027,9.77881 C5.4362,9.86279 5.77563,9.94328 6.04858,10.0203 C6.32153,10.0972 6.56999,10.1357 6.79395,10.1357 C6.97591,10.1357 7.21737,10.0972 7.51831,10.0203 C7.81925,9.94328 8.1377,9.86279 8.47363,9.77881 C8.82357,9.58285 9.13501,9.45687 9.40796,9.40088 C9.68091,9.34489 9.92936,9.31689 10.1533,9.31689 C10.3213,9.31689 10.5557,9.34489 10.8567,9.40088 C11.1576,9.45687 11.4831,9.58285 11.833,9.77881 M6.45801,1.98926 C6.45801,1.07943 6.76595,0.316569 7.38184,-0.299316 C7.99772,-0.915202 8.71859,-1.22314 9.54443,-1.22314 C10.3843,-1.22314 11.1121,-0.915202 11.728,-0.299316 C12.3439,0.316569 12.6519,1.07943 12.6519,1.98926 C12.6519,2.8291 12.3439,3.55697 11.728,4.17285 C11.1121,4.78874 10.3843,5.09668 9.54443,5.09668 C8.71859,5.09668 7.99772,4.78874 7.38184,4.17285 C6.76595,3.55697 6.45801,2.8291 6.45801,1.98926 "/>
</g>

<g fill="#1f78b4" fill-opacity="1" stroke="none" transform="matrix(1,0,0,1,0,0)"
font-family="MS Shell Dlg 2" font-size="7.8" font-weight="400" font-style="normal" 
>
</g>
</g>
</svg>
